X:270
T: Mai douru
N: C0445
O: China,Taiwan
S: IV, 626]
N: Gibt es auch in Sued- Fujian.
R: Xiaodiao. Jiaomai]
M: 2/4
L: 1/16
K: G
ABAGE4 | GEGBA4 |
A2BdA2Bd | B2EGA4 |
G2E2BdBA | GBAFE4 |
B2edB4 | BAGAB2E2 |
B2BdB2A2 | B8 |
A2B2AGE2 | GAB2dBA2 |
GABdAGED | E8 |
GGEDB,4 | GABdA4 |
G2E2BdBA | G2AGE4 |
B2edB4 | BAGAB2E2 |
B2BdB2A2 | B8

@@@ Tune index: 6271
